dist/svgs/team-talk.svg

<svg xmlns="http://www.w3.org/2000/svg" viewBox="0 0 512 512"><path d="M512 238q0 73-53 132l10 100q0 5-1.5 10.5T461 489q-7 5-13 5-3 0-5-1t-4-1l-119-47q-32 6-64 6-53 0-99.5-17T75 388t-55-67.5T0 238t20-83 55-68 81.5-46T256 24t99.5 17T437 87t55 68 20 83zm-213 21H149v43h150v-43zm64-85H149v42h214v-42z"/></svg>

<?xml version="1.0" encoding="UTF-8" standalone="no"?><svg   xmlns:svg="http://www.w3.org/2000/svg"   xmlns="http://www.w3.org/2000/svg"   version="1.1"   width="512"   height="512"   viewBox="0 0 512 512">  <path     d="M512 238Q512 311 459 370L469 470Q469 475 467.5 480.5T461 489Q454 494 448 494Q445 494 443 493T439 492L320 445Q288 451 256 451Q203 451 156.5 434T75 388T20 320.5T0 238T20 155T75 87T156.5 41T256 24T355.5 41T437 87T492 155T512 238zM299 259H149V302H299V259zM363 174H149V216H363V174z"     id="team-talk" /></svg>
